!!!OTL: Bruder Melchor, S. 54
!!!id: R0056
**kern
*clefG2
*k[f#]
*G:
{16g
=1
16g
8g
8a
8b
8cc
=2
4dd
4dd
=3
8ee
8ff#
8gg
8ee
=4
8ee
8dd
4dd}
=5
{8cc
8cc
4cc
=6
8b
8b
8b
8b
=7
8a
8a
8dd
8dd
=8
4g
4g}
=9
{8g
16a
16a
16b
16b
8cc
=10
8dd
8dd
8dd}
=11
{8dd
=12
8ee
8ff#
8gg
16ee
16ee
=13
16ee
16dd
8dd
8dd
8dd}
=14
{8cc
8cc
4cc
=15
16b
16b
8b
4b}
=16
{8cc
8cc
4cc
=17
16b
16b
8b
4b}
=18
{8g
8a
8b
8cc
=19
4dd
4gg
=20
8.ee
16ee
8.gg
16ee
=21
4dd}
4r
=22
{8cc
8cc
8cc
8cc
=23
4b
4b
=24
4a
4a
=25
2g}
==
*-
!!!minrhy: 16
!!!meters: 2/4 ]  ZZ[8
!!!cut: Bruder Melchor, S. 54
!!!reg: Luxemburg
!!!trd: D'Fraen um Kanddaaf an der aler Zeit, Luxemburg 1929
!!!rhy1:   X_X_X_X_  X__X__  X_X_X_X_  X_X_X__   (x2)
!!!rhy2: X_X_X__  X_X_X_X_  X_X_X_X_  X__X__
!!!key: R0056  16  G 2/4 ]  ZZ[8
!!!mod: HEPTATONIK IONISCH]  AMBITUS[8
!!!kad: 51553351
!!!akz: 1566_4321_15_66_43_43_1565_4321_
!!!fot: 'a__b__av_c__bv_bv_aw_bw_
!!!for: 'a__b__c__d__e__e__f__g__
!!!fok: '^a_\__/__^__\__\__^a_\__
!! PHRAS[VORWIEGEND VOLLTAKTIG]
!!!fkt: ??
!! RUDEN, J.M.:
!! PR[50] 2K[2] 2G[5] 3K[0] 3G[7] 4A[9] 4Ü[0] 5A[0] 6K[0] 6G[0]
!! 7K[0] 7G[0] 8A[0] MEHR[0] SI[23] ABS[44] SR[7] SP[16]
!! ST[14] 2k[2] 2g[9] 3k[0] 3g[5] 4d[11] 4ü[0] 5d[0] 6k[0] 6g[0]
!! 7k[0] 7g[0] 8d[0] mehr[0] si[27] dm[-4] sr[11] sp[16]
!! 1F[19] 2F[56] 3F[15] 4F[0] LF[0] 2P[6] 3P[4] 4P[0] TRI[0] DF[5] AB[48]
!! TF[9] U3K[0] U3[7] U4[4] U4Ü[2] U5[58] U6K[0] U6[2] U7K[0] U7[7]
!! N1[11] N2K[0] N2[0] N3K[0] N3[0] N4[0] N4Ü[0] N5[0] N6K[0] N6[0]
!!!n7k: 0] N7[0] O1[0] O2K[0] O2[0] O3K[0] O3[0] HÖ[0
